assets/img/cash.svg

<?xml version="1.0" encoding="UTF-8"?>
<svg width="45px" height="30px" viewBox="0 0 45 30" version="1.1" xmlns="http://www.w3.org/2000/svg" xmlns:xlink="http://www.w3.org/1999/xlink">
    <!-- Generator: Sketch 64 (93537) - https://sketch.com -->
    <title>cash-2</title>
    <desc>Created with Sketch.</desc>
    <g id="Welcome" stroke="none" stroke-width="1" fill="none" fill-rule="evenodd">
        <g id="order-summery-1.0" transform="translate(-1014.000000, -658.000000)" fill-rule="nonzero">
            <g id="cash-2" transform="translate(1014.000000, 658.000000)">
                <g id="Group">
                    <path d="M42.2270824,6.25134868 L37.1781996,6.25134868 L5.66131236,21.6154934 L5.66131236,27.080625 C5.71539046,28.6719079 6.99344902,29.9412829 8.5682538,29.9678289 L42.2270824,29.9678289 C43.7478091,29.9403947 44.9586117,28.6719079 44.9314751,27.1345066 C44.9311822,27.1165461 44.9306941,27.0985855 44.9300108,27.080625 L44.9300108,9.24167763 C45.015423,7.67792763 43.8307809,6.34036184 42.2840889,6.25391447 C42.2650542,6.25292763 42.2460195,6.25203947 42.2270824,6.25134868 Z" id="Path" fill="#2BA037"></path>
                    <path d="M39.320141,6.35447368 L39.320141,20.7389803 C39.320141,22.3335197 38.0414967,23.6261843 36.4642516,23.6261843 L2.80542299,23.6261843 C1.25629067,23.6264803 0,22.3571053 0,20.7909868 C0,20.7736184 0,20.7563487 0.000488069414,20.7389803 L0.000488069414,2.95164474 C-0.0277223427,1.38582237 1.20504338,0.0933552632 2.75388286,0.0649342105 C2.77106291,0.0644407895 2.78814534,0.0644407895 2.80532538,0.0644407895 L36.464154,0.0644407895 C38.0413991,0.0644407895 39.320141,1.35710526 39.320141,2.95164474 L39.320141,6.35447368 L39.320141,6.35447368 Z" id="Path" fill="#3BB54A"></path>
                </g>
                <g id="Group" transform="translate(3.026030, 2.664474)" fill="#2BA037">
                    <ellipse id="Oval" cx="31.1433189" cy="15.8575658" rx="2.03993492" ry="2.06230263"></ellipse>
                    <ellipse id="Oval" cx="16.6088069" cy="9.20664474" rx="9.07770065" ry="9.17723684"></ellipse>
                    <ellipse id="Oval" cx="2.07429501" cy="2.45259868" rx="2.03993492" ry="2.06230263"></ellipse>
                </g>
            </g>
        </g>
    </g>
</svg>

<svg width="45" height="30" xmlns="http://www.w3.org/2000/svg"><g fill="none"><path d="M42.227 6.251h-5.049L5.661 21.615v5.466c.054 1.59 1.332 2.86 2.907 2.887h33.66c1.52-.028 2.73-1.296 2.703-2.833l-.001-.054V9.24c.085-1.563-1.1-2.9-2.646-2.987a3.725 3.725 0 00-.057-.003z" fill="#2BA037"/><path d="M39.32 6.354V20.74c0 1.595-1.279 2.887-2.856 2.887H2.805C1.256 23.626 0 22.357 0 20.791V2.952C-.028 1.386 1.205.093 2.754.065h33.711c1.576 0 2.855 1.292 2.855 2.887v3.402z" fill="#3BB54A"/><g transform="translate(3.026 2.664)" fill="#2BA037"><ellipse cx="31.143" cy="15.858" rx="2.04" ry="2.062"/><ellipse cx="16.609" cy="9.207" rx="9.078" ry="9.177"/><ellipse cx="2.074" cy="2.453" rx="2.04" ry="2.062"/></g></g></svg>
